symbols/be/PVO-{40}.svg

<?xml version="1.0" encoding="UTF-8" standalone="no"?>
<!-- Initially created with Inkscape, optimized by hand -->

<svg
   version="1.1"
   width="20"
   height="14.096813"
   id="svg1"
   xmlns="http://www.w3.org/2000/svg"
   xmlns:svg="http://www.w3.org/2000/svg">
  <defs
     id="defs1" />
  <rect
     x="0"
     y="0"
     width="20"
     height="14.096812"
     style="fill:#ffffff;stroke:none;stroke-width:0.0590319"
     id="Fond" />
  <circle
     cx="10"
     cy="7.0484047"
     r="5.8441563"
     style="fill:none;stroke:#000000;stroke-width:0.590319"
     id="circle1" />
  <path
     d="m 12.137598,8.8248586 c 0,-0.192001 -0.160001,-0.352001 -0.352001,-0.352001 h -0.714669 v -1.077337 c 0,-0.192001 -0.160001,-0.341334 -0.352001,-0.341334 -0.192001,0 -0.362668,0.16 -0.362668,0.352001 v 1.06667 H 8.6922544 l 1.301337,-4.554681 c 0.05333,-0.202668 -0.08533,-0.426668 -0.341334,-0.426668 -0.128001,-0.01067 -0.298668,0.07467 -0.341335,0.234667 l -1.440004,5.013349 c -0.032,0.138667 0.032,0.298668 0.096,0.341335 0.08533,0.07467 0.149334,0.106667 0.256001,0.106667 h 2.1333396 v 1.0666704 c 0,0.192 0.170667,0.352001 0.362668,0.352001 0.192,0 0.352001,-0.160001 0.352001,-0.352001 V 9.1875266 h 0.714669 c 0.192,0 0.352001,-0.170668 0.352001,-0.362668 z"
     id="text1"
     style="font-size:10.6667px;font-family:Isonorm;-inkscape-font-specification:'Isonorm, Normal';fill-rule:evenodd;stroke-width:0.0944511"
     aria-label="4" />
</svg>

<?xml version="1.0" encoding="UTF-8"?>
<svg xmlns="http://www.w3.org/2000/svg" xmlns:xlink="http://www.w3.org/1999/xlink" width="20" height="14.096813" viewBox="0 0 20 14.096813">
<path fill-rule="nonzero" fill="rgb(100%, 100%, 100%)" fill-opacity="1" d="M 0 0 L 20 0 L 20 14.097656 L 0 14.097656 Z M 0 0 "/>
<path fill="none" stroke-width="0.590319" stroke-linecap="butt" stroke-linejoin="miter" stroke="rgb(0%, 0%, 0%)" stroke-opacity="1" stroke-miterlimit="4" d="M 15.84375 7.046875 C 15.84375 10.277344 13.226562 12.890625 10 12.890625 C 6.773438 12.890625 4.15625 10.277344 4.15625 7.046875 C 4.15625 3.820312 6.773438 1.203125 10 1.203125 C 13.226562 1.203125 15.84375 3.820312 15.84375 7.046875 Z M 15.84375 7.046875 "/>
<path fill-rule="evenodd" fill="rgb(0%, 0%, 0%)" fill-opacity="1" d="M 12.136719 8.824219 C 12.136719 8.632812 11.976562 8.472656 11.785156 8.472656 L 11.070312 8.472656 L 11.070312 7.394531 C 11.070312 7.203125 10.910156 7.054688 10.71875 7.054688 C 10.527344 7.054688 10.355469 7.214844 10.355469 7.40625 L 10.355469 8.472656 L 8.691406 8.472656 L 9.992188 3.917969 C 10.046875 3.714844 9.910156 3.492188 9.652344 3.492188 C 9.523438 3.480469 9.355469 3.566406 9.3125 3.726562 L 7.871094 8.738281 C 7.839844 8.878906 7.902344 9.039062 7.96875 9.082031 C 8.050781 9.15625 8.117188 9.1875 8.222656 9.1875 L 10.355469 9.1875 L 10.355469 10.253906 C 10.355469 10.445312 10.527344 10.605469 10.71875 10.605469 C 10.910156 10.605469 11.070312 10.445312 11.070312 10.253906 L 11.070312 9.1875 L 11.785156 9.1875 C 11.976562 9.1875 12.136719 9.015625 12.136719 8.824219 Z M 12.136719 8.824219 "/>
</svg>
